Obsidian/actions/16s/mergecell-horizontal.svg

<svg viewBox="0 0 16 16" xmlns="http://www.w3.org/2000/svg"><path d="m2 2v12h12v-1-3-1-6-1zm1 1h2v2h-2zm3 0h3v2h-3zm4 0h3v2h-3zm-7 3h2v3h-2zm3 0h3 1 3v3h-7zm-3 4h2v1 1 1h-2v-1-1zm3 0h7v3h-3-1-3z" fill="#f2f2f2"/></svg>

<svg xmlns="http://www.w3.org/2000/svg" viewBox="0 0 16 16">
  <defs id="defs3051">
    <style type="text/css" id="current-color-scheme">
      .ColorScheme-Text {
        color:#f2f2f2;
      }
      </style>
  </defs>
 <path style="fill:currentColor;fill-opacity:1;stroke:none" 
     d="M 2 2 L 2 14 L 14 14 L 14 13 L 14 10 L 14 9 L 14 3 L 14 2 L 2 2 z M 3 3 L 5 3 L 5 5 L 3 5 L 3 3 z M 6 3 L 9 3 L 9 5 L 6 5 L 6 3 z M 10 3 L 13 3 L 13 5 L 10 5 L 10 3 z M 3 6 L 5 6 L 5 9 L 3 9 L 3 6 z M 6 6 L 9 6 L 10 6 L 13 6 L 13 9 L 6 9 L 6 6 z M 3 10 L 5 10 L 5 11 L 5 12 L 5 13 L 3 13 L 3 12 L 3 11 L 3 10 z M 6 10 L 13 10 L 13 13 L 10 13 L 9 13 L 6 13 L 6 10 z "
     class="ColorScheme-Text"
     />
</svg>
